X: 13723
T: Forde's
R: polka
M: 2/4
K: Dmajor
AD FA|dc AB|=c>B cE|EF GF/G/|
AD FA|dc AB|=c>B cE|1 ED D2:|2 ED D>e||
fd ed|cA Ad/e/|fd ef|ag ef/g/|
fd ed|cA AB|=c>B cE|1 ED D>e:|2 ED D2||

